assets/awsiotsitewisedatastreams/original.svg

<svg height="48" viewBox="0 0 48 48" width="48" xmlns="http://www.w3.org/2000/svg"><path d="m36 2v5h-16v7h2v-5h14v3h10v-10zm2 8h6v-6h-6zm-28 6v2h16v20h2v-22zm-3 2h2v-2h-2zm-3 0h2v-2h-2zm34 10h8v-8h-8zm2-1.999h4.001v-4.001h-4.001zm-18 19.999h2v-25h-2zm8-23v23h1.999v-21h5.001v-2zm-28 12h10v-10h-10zm2-2h6v-6h-6zm9.999-4v2h4.001v15h2v-17zm12.001 17h2v-6h-2z" fill="#7aa116" fill-rule="evenodd"/></svg>

<svg xmlns="http://www.w3.org/2000/svg" width="48" height="48" viewBox="0 0 48 48"><path fill="#7aa116" fill-rule="evenodd" d="M36 2v5H20v7h2V9h14v3h10V2zm2 8h6V4h-6zm-28 6v2h16v20h2V16zm-3 2h2v-2H7zm-3 0h2v-2H4zm34 10h8v-8h-8zm2-1.999h4.001V22H40zM22 46h2V21h-2zm8-23v23h1.999V25H37v-2zM2 35h10V25H2zm2-2h6v-6H4zm9.999-4v2H18v15h2V29zM26 46h2v-6h-2z"/></svg>
